teeny/solid/arrow-right-small.svg

<svg width="15" height="15" viewBox="0 0 15 15" fill="none" xmlns="http://www.w3.org/2000/svg">
<path fill-rule="evenodd" clip-rule="evenodd" d="M8.5 4.79291L11.2071 7.50001L8.5 10.2071L7.79289 9.50001L9.29289 8.00001H4V7.00001H9.29289L7.79289 5.50001L8.5 4.79291Z" fill="black"/>
</svg>

<svg viewBox="0 0 15 15" xmlns="http://www.w3.org/2000/svg"><path fill-rule="evenodd" d="M8.5 4.79l2.7 2.7 -2.71 2.7 -.71-.71 1.5-1.5h-5.3v-1h5.29l-1.5-1.5 .7-.71Z"/></svg>
